;FLAVOR:Marlin
;TIME:43113
;Filament used: 30.3399m
;Layer height: 0.2
;MINX:37.717
;MINY:73.86
;MINZ:0.2
;MAXX:182.283
;MAXY:146.14
;MAXZ:59.4
;Generated with Cura_SteamEngine master
M140 S50
M105
M190 S50
M104 S200
M105
M109 S200
M82 ;absolute extrusion mode
M201 X500.00 Y500.00 Z100.00 E5000.00 ;Setup machine max acceleration
M203 X500.00 Y500.00 Z10.00 E50.00 ;Setup machine max feedrate
M204 P500.00 R1000.00 T500.00 ;Setup Print/Retract/Travel acceleration
M205 X8.00 Y8.00 Z0.40 E5.00 ;Setup Jerk
M220 S100 ;Reset Feedrate
M221 S100 ;Reset Flowrate

G28 ;Home
M420 S1 Z2 ;Enable ABL using saved Mesh and Fade Height

G92 E0 ;Reset Extruder
G1 Z2.0 F3000 ;Move Z Axis up
G1 X10.1 Y20 Z0.28 F5000.0 ;Move to start position
G1 X10.1 Y200.0 Z0.28 F1500.0 E15 ;Draw the first line
G1 X10.4 Y200.0 Z0.28 F5000.0 ;Move to side a little
G1 X10.4 Y20 Z0.28 F1500.0 E30 ;Draw the second line
G92 E0 ;Reset Extruder
G1 Z2.0 F3000 ;Move Z Axis up

G92 E0
G92 E0
G1 F2700 E-5
;LAYER_COUNT:297
;LAYER:0
M107
G0 F6000 X48.272 Y75.421 Z0.2
;TYPE:SKIRT
G1 F2700 E0
G1 F1200 X49.097 Y74.975 E0.03119
G1 X49.957 Y74.602 E0.06237
G1 X50.846 Y74.303 E0.09357
G1 X51.758 Y74.081 E0.12479
G1 X52.684 Y73.938 E0.15595
G1 X53.566 Y73.875 E0.18536
G1 X53.892 Y73.865 E0.19621
G1 X54.229 Y73.86 E0.20742
G1 X170.734 Y73.861 E4.08239
G1 X171.432 Y73.871 E4.10561
G1 X172.368 Y73.925 E4.13679
G1 X173.296 Y74.057 E4.16797
G1 X174.21 Y74.269 E4.19917
G1 X175.102 Y74.558 E4.23036
G1 X175.967 Y74.921 E4.26156
G1 X176.797 Y75.357 E4.29274
G1 X177.588 Y75.862 E4.32396
G1 X178.332 Y76.433 E4.35515
G1 X179.025 Y77.065 E4.38635
G1 X179.662 Y77.753 E4.41753
G1 X180.237 Y78.494 E4.44873
G1 X180.748 Y79.28 E4.47991
G1 X181.19 Y80.108 E4.51113
G1 X181.559 Y80.97 E4.54231
G1 X181.854 Y81.86 E4.5735
G1 X182.072 Y82.772 E4.60468
G1 X182.212 Y83.7 E4.6359
G1 X182.27 Y84.561 E4.6646
G1 X182.279 Y84.881 E4.67525
G1 X182.283 Y85.19 E4.68553
G1 X182.282 Y133.185 E6.28185
G1 X182.272 Y133.912 E6.30603
G1 X182.219 Y134.849 E6.33724
G1 X182.087 Y135.777 E6.36842
G1 X181.876 Y136.691 E6.39962
G1 X181.587 Y137.583 E6.43081
G1 X181.224 Y138.448 E6.46201
G1 X180.789 Y139.279 E6.4932
G1 X180.284 Y140.069 E6.52439
G1 X179.714 Y140.814 E6.55559
G1 X179.083 Y141.508 E6.58679
G1 X178.394 Y142.145 E6.61799
G1 X177.654 Y142.721 E6.64918
G1 X176.868 Y143.232 E6.68037
G1 X176.041 Y143.674 E6.71155
G1 X175.179 Y144.044 E6.74275
G1 X174.289 Y144.339 E6.77394
G1 X173.377 Y144.558 E6.80513
G1 X172.45 Y144.698 E6.83632
G1 X171.582 Y144.757 E6.86525
G1 X171.262 Y144.766 E6.8759
G1 X170.953 Y144.77 E6.88618
G1 X148.531 Y144.77 E7.63194
G1 X145.923 Y144.807 E7.71869
G1 X143.402 Y144.914 E7.80261
G1 X140.907 Y145.091 E7.88581
G1 X138.407 Y145.339 E7.96936
G1 X135.918 Y145.657 E8.05282
G1 X135.111 Y145.787 E8.08001
G1 X134.954 Y145.805 E8.08526
G1 X133.595 Y146.009 E8.13097
G1 X132.332 Y146.124 E8.17315
G1 X131.951 Y146.134 E8.18583
G1 X131.409 Y146.14 E8.20386
G1 X123.397 Y146.139 E8.47034
G1 X122.248 Y146.123 E8.50856
G1 X119.525 Y146.123 E8.59912
G1 X118.106 Y146.14 E8.64632
G1 X112.857 Y146.139 E8.82091
G1 X111.183 Y146.115 E8.87659
G1 X108.591 Y146.115 E8.9628
G1 X108.08 Y146.126 E8.9798
G1 X106.809 Y146.14 E9.02208
G1 X94.309 Y146.139 E9.43783
G1 X93.593 Y146.128 E9.46164
G1 X92.657 Y146.073 E9.49283
G1 X92.054 Y145.996 E9.51305
G1 X91.139 Y145.852 E9.54386
G1 X88.625 Y145.493 E9.62832
G1 X86.132 Y145.209 E9.71177
G1 X83.623 Y144.995 E9.79553
G1 X81.092 Y144.851 E9.87984
G1 X78.587 Y144.779 E9.9632
G1 X77.232 Y144.77 E10.00826
G1 X54.606 Y144.77 E10.76081
G1 X53.747 Y144.759 E10.78938
G1 X52.81 Y144.706 E10.8206
G1 X51.882 Y144.573 E10.85178
G1 X50.968 Y144.361 E10.88298
G1 X50.076 Y144.073 E10.91416
G1 X49.211 Y143.709 E10.94537
G1 X48.381 Y143.273 E10.97656
G1 X47.59 Y142.768 E11.00777
G1 X46.846 Y142.198 E11.03894
G1 X46.184 Y141.597 E11.06868
G1 X45.808 Y141.225 E11.08627
G1 X44.456 Y139.855 E11.15029
G1 X42.635 Y138.111 E11.23415
G1 X42.147 Y137.668 E11.25607
G1 X41.305 Y136.885 E11.29432
G1 X40.646 Y136.218 E11.3255
G1 X40.047 Y135.497 E11.35668
G1 X39.51 Y134.727 E11.3879
G1 X39.042 Y133.915 E11.41908
G1 X38.644 Y133.065 E11.45029
G1 X38.365 Y132.323 E11.47666
G1 X38.291 Y132.102 E11.48441
G1 X38.032 Y131.2 E11.51562
G1 X37.85 Y130.28 E11.54682
G1 X37.747 Y129.348 E11.578
G1 X37.723 Y128.743 E11.59814
G1 X37.717 Y128.2 E11.6162
G1 X37.718 Y90.418 E12.87284
G1 X37.728 Y89.716 E12.89619
G1 X37.781 Y88.78 E12.92737
G1 X37.914 Y87.852 E12.95855
G1 X38.126 Y86.938 E12.98976
G1 X38.414 Y86.045 E13.02096
G1 X38.778 Y85.181 E13.05215
G1 X39.214 Y84.35 E13.08336
G1 X39.719 Y83.56 E13.11454
G1 X40.289 Y82.816 E13.14572
G1 X40.911 Y82.133 E13.17644
G1 X41.013 Y82.03 E13.18126
G1 X41.386 Y81.671 E13.19848
G1 X42.065 Y81.047 E13.22915
G1 X43.989 Y79.23 E13.31717
G1 X45.398 Y77.83 E13.38324
G1 X46.064 Y77.153 E13.41482
G1 X46.749 Y76.514 E13.44598
G1 X47.487 Y75.935 E13.47718
G1 X48.272 Y75.421 E13.50839
G0 F6000 X48.52 Y75.738
G1 F1200 X49.333 Y75.306 E13.53901
G1 X50.18 Y74.945 E13.56963
G1 X51.055 Y74.66 E13.60024
G1 X51.952 Y74.451 E13.63087
G1 X52.863 Y74.321 E13.66148
G1 X53.578 Y74.275 E13.68531
G1 X53.904 Y74.265 E13.69616
G1 X54.229 Y74.26 E13.70697
G1 X170.728 Y74.261 E17.58174
G1 X171.426 Y74.271 E17.60496
G1 X172.345 Y74.324 E17.63558
G1 X173.256 Y74.457 E17.6662
G1 X174.152 Y74.668 E17.69681
G1 X175.026 Y74.956 E17.72742
G1 X175.873 Y75.319 E17.75807
G1 X176.684 Y75.754 E17.78868
G1 X177.454 Y76.258 E17.81929
G1 X178.178 Y76.827 E17.84991
G1 X178.85 Y77.457 E17.88055
G1 X179.465 Y78.142 E17.91117
G1 X180.018 Y78.878 E17.94179
G1 X180.505 Y79.659 E17.9724
G1 X180.922 Y80.48 E18.00303
G1 X181.267 Y81.334 E18.03366
G1 X181.536 Y82.214 E18.06427
G1 X181.728 Y83.115 E18.09491
G1 X181.841 Y84.028 E18.12551
G1 X181.87 Y84.572 E18.14363
G1 X181.879 Y84.892 E18.15427
G1 X181.883 Y85.19 E18.16419
G1 X181.882 Y133.18 E19.76034
G1 X181.872 Y133.907 E19.78452
G1 X181.819 Y134.826 E19.81514
G1 X181.687 Y135.737 E19.84576
G1 X181.476 Y136.633 E19.87637
G1 X181.189 Y137.508 E19.907
G1 X180.826 Y138.354 E19.93762
G1 X180.392 Y139.166 E19.96824
G1 X179.888 Y139.937 E19.99888
G1 X179.32 Y140.661 E20.02948
G1 X178.691 Y141.333 E20.0601
G1 X178.006 Y141.948 E20.09072
G1 X177.27 Y142.501 E20.12134
G1 X176.489 Y142.989 E20.15197
G1 X175.669 Y143.407 E20.18258
G1 X174.815 Y143.752 E20.21321
G1 X173.935 Y144.021 E20.24382
G1 X173.034 Y144.214 E20.27447
G1 X172.121 Y144.327 E20.30506
G1 X171.571 Y144.357 E20.32339
G1 X171.251 Y144.366 E20.33403
G1 X170.953 Y144.37 E20.34395
G1 X148.525 Y144.37 E21.0899
G1 X145.9 Y144.407 E21.17722
G1 X143.392 Y144.514 E21.26071
G1 X140.872 Y144.692 E21.34474
G1 X138.357 Y144.941 E21.42879
G1 X135.861 Y145.261 E21.51249
G1 X135.047 Y145.392 E21.53991
G1 X134.883 Y145.411 E21.5454
G1 X133.535 Y145.613 E21.59074
G1 X132.319 Y145.724 E21.63135
G1 X131.946 Y145.734 E21.64376
G1 X131.409 Y145.74 E21.66162
G1 X123.403 Y145.739 E21.92791
G1 X122.254 Y145.723 E21.96613
G1 X119.521 Y145.723 E22.05703
G1 X118.106 Y145.74 E22.10409
G1 X112.863 Y145.739 E22.27847
G1 X111.189 Y145.715 E22.33416
G1 X108.581 Y145.715 E22.4209
G1 X108.075 Y145.726 E22.43773
G1 X106.809 Y145.74 E22.47984
G1 X94.315 Y145.739 E22.8954
G1 X93.599 Y145.728 E22.91921
G1 X92.68 Y145.674 E22.94983
G1 X92.116 Y145.6 E22.96875
G1 X91.251 Y145.464 E22.99787
G1 X88.695 Y145.099 E23.08375
G1 X86.175 Y144.812 E23.16811
G1 X83.643 Y144.596 E23.25263
G1 X81.127 Y144.453 E23.33645
G1 X78.555 Y144.379 E23.42203
G1 X77.234 Y144.37 E23.46596
G1 X54.606 Y144.37 E24.21857
G1 X53.752 Y144.359 E24.24698
G1 X52.833 Y144.306 E24.2776
G1 X51.922 Y144.173 E24.30822
G1 X51.026 Y143.962 E24.33883
G1 X50.152 Y143.674 E24.36944
G1 X49.305 Y143.311 E24.40009
G1 X48.494 Y142.876 E24.4307
G1 X47.723 Y142.372 E24.46134
G1 X46.999 Y141.804 E24.49194
G1 X46.465 Y141.312 E24.51609
G1 X46.093 Y140.944 E24.5335
G1 X44.752 Y139.585 E24.597
G1 X42.896 Y137.808 E24.68246
G1 X42.42 Y137.375 E24.70386
G1 X41.578 Y136.592 E24.74211
G1 X40.931 Y135.937 E24.77273
G1 X40.344 Y135.227 E24.80337
G1 X39.821 Y134.47 E24.83397
G1 X39.365 Y133.67 E24.8646
G1 X38.981 Y132.833 E24.89523
G1 X38.745 Y132.196 E24.91782
G1 X38.671 Y131.975 E24.92557
G1 X38.416 Y131.09 E24.9562
G1 X38.24 Y130.186 E24.98684
G1 X38.143 Y129.271 E25.01744
G1 X38.123 Y128.739 E25.03515
G1 X38.117 Y128.2 E25.05308
G1 X38.118 Y90.424 E26.30951
G1 X38.128 Y89.722 E26.33286
G1 X38.181 Y88.803 E26.36348
G1 X38.314 Y87.892 E26.3941
G1 X38.525 Y86.996 E26.42472
G1 X38.813 Y86.121 E26.45535
G1 X39.176 Y85.275 E26.48597
G1 X39.611 Y84.464 E26.51658
G1 X40.115 Y83.693 E26.54722
G1 X40.683 Y82.969 E26.57783
G1 X41.195 Y82.414 E26.60294
G1 X41.297 Y82.311 E26.60776
G1 X41.656 Y81.965 E26.62434
G1 X42.365 Y81.313 E26.65638
G1 X44.282 Y79.503 E26.74407
G1 X45.682 Y78.112 E26.80971
G1 X46.349 Y77.434 E26.84134
G1 X47.022 Y76.807 E26.87194
G1 X47.748 Y76.24 E26.90258
G1 X48.52 Y75.738 E26.9332
G0 F6000 X48.768 Y76.057
G1 F1200 X49.567 Y75.637 E26.96323
G1 X50.401 Y75.29 E26.99327
G1 X51.262 Y75.018 E27.0233
G1 X52.144 Y74.823 E27.05335
G1 X53.04 Y74.707 E27.0834
G1 X53.59 Y74.675 E27.10172
G1 X53.916 Y74.665 E27.11257
G1 X54.229 Y74.66 E27.12298
G1 X170.722 Y74.661 E30.99755
G1 X171.42 Y74.671 E31.02077
G1 X172.322 Y74.724 E31.05082
G1 X173.215 Y74.856 E31.08085
G1 X174.093 Y75.067 E31.11088
G1 X174.949 Y75.355 E31.14092
G1 X175.776 Y75.717 E31.17095
G1 X176.568 Y76.152 E31.201
G1 X177.319 Y76.654 E31.23104
G1 X178.022 Y77.221 E31.26108
G1 X178.672 Y77.848 E31.29112
G1 X179.264 Y78.53 E31.32116
G1 X179.794 Y79.261 E31.35119
G1 X180.256 Y80.037 E31.38123
G1 X180.649 Y80.85 E31.41126
G1 X180.967 Y81.695 E31.44129
G1 X181.21 Y82.565 E31.47133
G1 X181.375 Y83.453 E31.50138
G1 X181.47 Y84.583 E31.53909
G1 X181.479 Y84.903 E31.54974
G1 X181.483 Y85.19 E31.55929
G1 X181.482 Y133.174 E33.15524
G1 X181.472 Y133.901 E33.17942
G1 X181.42 Y134.803 E33.20947
G1 X181.288 Y135.696 E33.2395
G1 X181.077 Y136.575 E33.26956
G1 X180.79 Y137.431 E33.29959
G1 X180.428 Y138.258 E33.32962
G1 X179.994 Y139.05 E33.35966
G1 X179.492 Y139.801 E33.3897
G1 X178.926 Y140.504 E33.41972
G1 X178.299 Y141.155 E33.44978
G1 X177.618 Y141.747 E33.47979
G1 X176.887 Y142.277 E33.50982
G1 X176.111 Y142.74 E33.53988
G1 X175.298 Y143.133 E33.56991
G1 X174.453 Y143.453 E33.59997
G1 X173.584 Y143.696 E33.62998
G1 X172.696 Y143.861 E33.66002
G1 X171.56 Y143.957 E33.69794
G1 X171.24 Y143.966 E33.70858
G1 X170.953 Y143.97 E33.71813
G1 X148.519 Y143.97 E34.46429
G1 X145.913 Y144.007 E34.55097
G1 X143.348 Y144.116 E34.63636
G1 X140.841 Y144.294 E34.71995
G1 X138.3 Y144.545 E34.80488
G1 X135.812 Y144.864 E34.88831
G1 X134.984 Y144.997 E34.9162
G1 X134.843 Y145.013 E34.92092
G1 X133.476 Y145.218 E34.9669
G1 X132.306 Y145.324 E35.00597
G1 X131.941 Y145.334 E35.01811
G1 X131.409 Y145.34 E35.03581
G1 X123.408 Y145.339 E35.30192
G1 X122.259 Y145.323 E35.34014
G1 X119.519 Y145.323 E35.43128
G1 X118.106 Y145.34 E35.47828
G1 X112.869 Y145.339 E35.65246
G1 X111.195 Y145.315 E35.70814
G1 X108.571 Y145.315 E35.79542
G1 X108.071 Y145.326 E35.81205
G1 X106.809 Y145.34 E35.85403
G1 X94.321 Y145.339 E36.26938
G1 X93.605 Y145.328 E36.2932
G1 X92.704 Y145.274 E36.32322
G1 X92.178 Y145.205 E36.34086
G1 X91.293 Y145.066 E36.37066
G1 X88.765 Y144.705 E36.45559
G1 X86.183 Y144.411 E36.54203
G1 X83.664 Y144.196 E36.62611
G1 X81.162 Y144.054 E36.70946
G1 X78.57 Y143.979 E36.79571
G1 X77.237 Y143.97 E36.84005
G1 X54.606 Y143.97 E37.59276
G1 X53.758 Y143.959 E37.62096
G1 X52.856 Y143.906 E37.65102
G1 X51.963 Y143.774 E37.68104
G1 X51.085 Y143.563 E37.71108
G1 X50.229 Y143.275 E37.74111
G1 X49.402 Y142.913 E37.77114
G1 X48.61 Y142.479 E37.80118
G1 X47.859 Y141.977 E37.83122
G1 X47.156 Y141.41 E37.86126
G1 X46.746 Y141.027 E37.87992
G1 X46.378 Y140.664 E37.89712
G1 X45.013 Y139.281 E37.96175
G1 X43.159 Y137.505 E38.04714
G1 X42.692 Y137.082 E38.06809
G1 X41.85 Y136.299 E38.10634
G1 X41.216 Y135.656 E38.13637
G1 X40.642 Y134.959 E38.1664
G1 X40.132 Y134.213 E38.19646
G1 X39.69 Y133.426 E38.22648
G1 X39.319 Y132.602 E38.25654
G1 X39.124 Y132.069 E38.27541
G1 X39.05 Y131.848 E38.28316
G1 X38.801 Y130.979 E38.31323
G1 X38.63 Y130.093 E38.34324
G1 X38.539 Y129.194 E38.3733
G1 X38.523 Y128.734 E38.38861
G1 X38.517 Y128.2 E38.40637
G1 X38.518 Y90.43 E39.6626
G1 X38.528 Y89.728 E39.68595
G1 X38.581 Y88.826 E39.71601
G1 X38.713 Y87.933 E39.74603
G1 X38.924 Y87.055 E39.77606
G1 X39.212 Y86.199 E39.8061
G1 X39.574 Y85.371 E39.83616
G1 X40.008 Y84.579 E39.8662
G1 X40.511 Y83.829 E39.89623
G1 X41.077 Y83.126 E39.92625
G1 X41.479 Y82.696 E39.94583
G1 X41.581 Y82.593 E39.95065
G1 X41.927 Y82.26 E39.96662
G1 X42.627 Y81.616 E39.99826
G1 X44.556 Y79.795 E40.08649
G1 X45.966 Y78.394 E40.1526
G1 X46.634 Y77.715 E40.18428
G1 X47.295 Y77.1 E40.21431
G1 X48.008 Y76.546 E40.24434
G1 X48.768 Y76.057 E40.2744
G0 F6000 X50.517 Y91.551
G1 F1200 X51.299 Y91.551 E40.30041
G1 X51.299 Y127.079 E41.48208
G1 X50.517 Y127.079 E41.50808
G1 X50.517 Y91.551 E42.68975
G0 F6000 X50.117 Y91.151
G1 F1200 X51.699 Y91.151 E42.74237
G1 X51.699 Y127.479 E43.95064
G1 X50.117 Y127.479 E44.00326
G1 X50.117 Y91.151 E45.21153
G0 F6000 X49.717 Y90.751
G1 F1200 X52.099 Y90.751 E45.29076
G1 X52.099 Y127.879 E46.52564
G1 X49.717 Y127.879 E46.60487
G1 X49.717 Y90.751 E47.83975
G0 F6000 X49.317 Y90.351
G1 F1200 X52.499 Y90.351 E47.94558
G1 X52.499 Y128.279 E49.20707
G1 X49.317 Y128.279 E49.31291
G1 X49.317 Y90.351 E50.5744
G0 F6000 X48.917 Y89.951
G1 F1200 X52.899 Y89.951 E50.70684
G1 X52.899 Y128.679 E51.99494
G1 X48.917 Y128.679 E52.12738
G1 X48.917 Y89.951 E53.41548
G1 F2700 E48.41548
G0 F6000 X53.238 Y133.927
G0 X53.742 Y134.431
G0 X93.854 Y134.77
G1 F2700 E53.41548
G1 F1200 X107.288 Y134.77 E53.8623
G1 X107.288 Y134.94 E53.86795
G1 X93.854 Y134.94 E54.31477
G1 X93.854 Y134.77 E54.32042
G0 F6000 X112.478 Y134.77
G1 F1200 X118.756 Y134.77 E54.52923
G1 X118.586 Y134.94 E54.53722
G1 X112.478 Y134.94 E54.74038
G1 X112.478 Y134.77 E54.74603
G0 F6000 X122.79 Y134.77
G1 F1200 X131.887 Y134.77 E55.0486
G1 X131.887 Y134.94 E55.05425
G1 X122.96 Y134.94 E55.35117
G1 X122.79 Y134.77 E55.35916
G1 F2700 E50.35916
;MESH:srs-support-0.2.stl
G0 F6000 X122.79 Y133.35
G0 X54.499 Y133.17
;TYPE:WALL-INNER
G1 F2700 E55.35916
G1 F1200 X54.499 Y85.46 E56.946
G1 X170.683 Y85.46 E60.8103
G1 X170.683 Y133.17 E62.39714
G1 X54.499 Y133.17 E66.26144
G0 F6000 X54.099 Y133.57
;TYPE:WALL-OUTER
G1 F1200 X54.099 Y85.06 E67.87488
G1 X171.083 Y85.06 E71.76579
G1 X171.083 Y133.57 E73.37924
G1 X54.099 Y133.57 E77.27014
G0 F6000 X54.369 Y133.3
G0 X54.609 Y132.78
G0 X54.889 Y132.78
;TYPE:SKIN
G1 F1200 X54.889 Y85.85 E78.83104
G1 X170.293 Y85.85 E82.66939
G1 X170.293 Y132.78 E84.23029
G1 X54.889 Y132.78 E88.06864
G0 F6000 X55.12 Y132.619
G1 F1200 X55.048 Y132.547 E88.07203
G0 F6000 X55.048 Y131.982
G1 F1200 X55.686 Y132.619 E88.10202
G0 F6000 X56.251 Y132.619
G1 F1200 X55.048 Y131.416 E88.1586
G0 F6000 X55.048 Y130.85
G1 F1200 X56.817 Y132.619 E88.24181
G0 F6000 X57.383 Y132.619
G1 F1200 X55.048 Y130.285 E88.35162
G0 F6000 X55.048 Y129.719
G1 F1200 X57.948 Y132.619 E88.48802
G0 F6000 X58.514 Y132.619
G1 F1200 X55.048 Y129.153 E88.65105
G0 F6000 X55.048 Y128.588
G1 F1200 X59.08 Y132.619 E88.84068
G0 F6000 X59.645 Y132.619
G1 F1200 X55.048 Y128.022 E89.05691
G0 F6000 X55.048 Y127.456
G1 F1200 X60.211 Y132.619 E89.29976
G0 F6000 X60.777 Y132.619
G1 F1200 X55.048 Y126.891 E89.56922
G0 F6000 X55.048 Y126.325
G1 F1200 X61.342 Y132.619 E89.86527
G0 F6000 X61.908 Y132.619
G1 F1200 X55.048 Y125.759 E90.18794
G0 F6000 X55.048 Y125.193
G1 F1200 X62.474 Y132.619 E90.53724
G0 F6000 X63.039 Y132.619
G1 F1200 X55.048 Y124.628 E90.91311
G0 F6000 X55.048 Y124.062
G1 F1200 X63.605 Y132.619 E91.3156
G0 F6000 X64.171 Y132.619
G1 F1200 X55.048 Y123.496 E91.74472
G0 F6000 X55.048 Y122.931
G1 F1200 X64.737 Y132.619 E92.20044
G0 F6000 X65.302 Y132.619
G1 F1200 X55.048 Y122.365 E92.68275
G0 F6000 X55.048 Y121.799
G1 F1200 X65.868 Y132.619 E93.19169
G0 F6000 X66.434 Y132.619
G1 F1200 X55.048 Y121.234 E93.72723
G0 F6000 X55.048 Y120.668
G1 F1200 X66.999 Y132.619 E94.28937
